assets/Toolbox/Flat/toolbox_flat.svg

<svg xmlns="http://www.w3.org/2000/svg" width="32" height="32" fill="none"><path fill="#321B41" d="M19.54 8.25c.12 0 .21.1.21.21v2.17h-7.5V8.46c0-.12.1-.21.21-.21h7.08Zm0-2.25h-7.07A2.46 2.46 0 0 0 10 8.46v4.42h12V8.46C22 7.1 20.9 6 19.54 6Z"/><path fill="#F8312F" d="M28.44 29.99H3.56c-.86 0-1.56-.7-1.56-1.56V18.005l.991-.457L2 17.004V13.12C2 11.39 3.4 10 5.12 10h21.75c1.73 0 3.12 1.4 3.12 3.12v3.898l-.743.5.743.487V28.44c.01.85-.69 1.55-1.55 1.55Z"/><path fill="#CA0B4A" d="M30 17H2v1h28v-1Z"/><path fill="#D3D3D3" d="M7 18.03a2 2 0 0 0 2 2c1.1 0 2-.9 1.99-2v-1.35c0-.34-.27-.62-.62-.62H7.62c-.34 0-.62.27-.62.62v1.35ZM21 18.03a2 2 0 0 0 2 2c1.1 0 2-.9 1.99-2v-1.35c0-.34-.27-.62-.62-.62h-2.75c-.34 0-.62.27-.62.62v1.35ZM25.5 23.05h-19c-.28 0-.5.22-.5.5s.22.5.5.5h19c.28 0 .5-.22.5-.5 0-.27-.22-.5-.5-.5ZM6.5 26.05h19c.28 0 .5.23.5.5 0 .28-.22.5-.5.5h-19c-.28 0-.5-.22-.5-.5s.22-.5.5-.5Z"/></svg>

<svg width="32" height="32" viewBox="0 0 32 32" fill="none" xmlns="http://www.w3.org/2000/svg">
<path d="M19.54 8.25C19.66 8.25 19.75 8.35 19.75 8.46V10.63H12.25V8.46C12.25 8.34 12.35 8.25 12.46 8.25H19.54ZM19.54 6H12.47C11.1 6 10 7.1 10 8.46V12.88H22V8.46C22 7.1 20.9 6 19.54 6Z" fill="#321B41"/>
<path d="M28.44 29.99H3.56C2.7 29.99 2 29.29 2 28.43V18.0054L2.99109 17.5476L2 17.0038V13.12C2 11.39 3.4 10 5.12 10H26.87C28.6 10 29.99 11.4 29.99 13.12V17.0182L29.2465 17.5189L29.99 18.0054V28.44C30 29.29 29.3 29.99 28.44 29.99Z" fill="#F8312F"/>
<path d="M30 17H2V18H30V17Z" fill="#CA0B4A"/>
<path d="M7 18.03C7 19.14 7.9 20.03 9 20.03C10.1 20.03 11 19.13 10.99 18.03V16.68C10.99 16.34 10.72 16.06 10.37 16.06H7.62C7.28 16.06 7 16.33 7 16.68V18.03Z" fill="#D3D3D3"/>
<path d="M21 18.03C21 19.14 21.9 20.03 23 20.03C24.1 20.03 25 19.13 24.99 18.03V16.68C24.99 16.34 24.72 16.06 24.37 16.06H21.62C21.28 16.06 21 16.33 21 16.68V18.03Z" fill="#D3D3D3"/>
<path d="M25.5 23.05H6.5C6.22 23.05 6 23.27 6 23.55C6 23.83 6.22 24.05 6.5 24.05H25.5C25.78 24.05 26 23.83 26 23.55C26 23.28 25.78 23.05 25.5 23.05Z" fill="#D3D3D3"/>
<path d="M6.5 26.05H25.5C25.78 26.05 26 26.28 26 26.55C26 26.83 25.78 27.05 25.5 27.05H6.5C6.22 27.05 6 26.83 6 26.55C6 26.27 6.22 26.05 6.5 26.05Z" fill="#D3D3D3"/>
</svg>
